X:18041
T:Rope Waltz, The
R:Waltz
C:Trad.
O:Scotland; Orkney
Z:Paul Hardy's Session Tunebook 2022 (see www.paulhardy.net). Creative Commons cc by-nc-sa licenced.
M:3/4
L:1/8
Q:1/4=140
K:D
A2 G2|"D" F3 G^GA|D4 d2|"A" c3 d^de|A4 G2|"D" F3 G^GA|D4 F2|"Em" E6-|"A" E2 A2 G2|
"D" F3 G^GA|D4 d2|"A" c3 d^de|A4 G2|"D" F3 G F2|"A7" E3 F E2|"D" D6-|D2 d2 e2||
"D" ff f2 e2|dd d2 c2|"G" d2 c2 B2|"D" A4 f2|"Em" g4 f2|"E7" e4 d2|"A" ce-e4-|e2 d2 e2|
"D" ff f2 e2|dd d2 c2|"G" d2 c2 B2|"D" A4 G2|F3 G F2|"A7" E3 F E2|"D" D6-|D2|]

